assets/fc/fc-library.svg

<svg xmlns="http://www.w3.org/2000/svg" width="100%" height="100%" viewBox="0 0 48 48"><g fill="#FF9800"><path d="M1 38h46v2H1zM25 18h4v16h-4zM31 18h4v16h-4zM37 18h4v16h-4zM19 18h4v16h-4zM13 18h4v16h-4zM7 18h4v16H7zM43 16H5v-3l19-9 19 9zM5 34h38v2H5z"/></g><g fill="#EF6C00"><path d="M25 16h4v2h-4zM31 16h4v2h-4zM37 16h4v2h-4zM19 16h4v2h-4zM13 16h4v2h-4zM7 16h4v2H7zM3 36h42v2H3z"/><circle cx="24" cy="11" r="2"/></g></svg>

<svg xmlns="http://www.w3.org/2000/svg" width="100%" height="100%" viewBox="0 0 48 48"><g fill="#FF9800"><path d="M1 38H47V40H1zM25 18H29V34H25zM31 18H35V34H31zM37 18H41V34H37zM19 18H23V34H19zM13 18H17V34H13zM7 18H11V34H7zM43 16L5 16 5 13 24 4 43 13zM5 34H43V36H5z"/></g><g fill="#EF6C00"><path d="M25 16H29V18H25zM31 16H35V18H31zM37 16H41V18H37zM19 16H23V18H19zM13 16H17V18H13zM7 16H11V18H7zM3 36H45V38H3z"/><circle cx="24" cy="11" r="2"/></g></svg>
